icons/svg/keyboard-return.svg

﻿<?xml version="1.0" encoding="utf-8"?>
<!DOCTYPE svg PUBLIC "-//W3C//DTD SVG 1.1//EN" "http://www.w3.org/Graphics/SVG/1.1/DTD/svg11.dtd">
<svg xmlns="http://www.w3.org/2000/svg" xmlns:xlink="http://www.w3.org/1999/xlink" version="1.1" baseProfile="full" width="24" height="24" viewBox="0 0 24.00 24.00" enable-background="new 0 0 24.00 24.00" xml:space="preserve">
	<path fill="#000000" fill-opacity="1" stroke-width="0.2" stroke-linejoin="round" d="M 18.9994,6.99807L 18.9994,10.9981L 5.8274,10.9981L 9.4134,7.41207L 7.9994,5.99807L 1.9994,11.9981L 7.9994,17.9981L 9.4134,16.5841L 5.8274,12.9981L 20.9994,12.9981L 20.9994,6.99807L 18.9994,6.99807 Z "/>
</svg>

<svg xmlns="http://www.w3.org/2000/svg" version="1.1" baseProfile="full" width="24" height="24" viewBox="0 0 24.00 24.00" xml:space="preserve"><path fill="#000" fill-opacity="1" stroke-width=".2" stroke-linejoin="round" d="M19 6.998v4H5.826l3.586-3.586L8 5.998l-6 6 6 6 1.413-1.414-3.586-3.586H21v-6h-2z"/></svg>
